X:1
T:Title
%%score { ( 1 4 ) | ( 2 3 ) }
L:1/8
M:4/4
K:F
V:1 treble nm="Grand Piano"
V:4 treble 
V:2 bass 
V:3 bass 
V:1
 z4 z2[Q:1/4=100] FG | AA A2 A2 GF |[M:3/4] cc c>d c2 |[M:1/4] FG |[M:4/4] AAAA AAGF | [EG]6 FG | %6
 AAAA AAGF | [Ec][Fc] [Ec]>[Ed] c2 FG | AA A2 AF [EG]>[EG] |[M:3/4] F6 |[M:1/4] A>B | %11
[M:4/4] z c3- c z z2 |[M:3/4] c6 |[M:1/4] FG |[M:4/4] AA A2 AAGF | [EG]6 z2 |[M:3/4] z c- c3 z | %17
[M:1/4] d>d |[M:4/4] c6 z2 | AA A2 AF [EG]>[EG] |[M:3/4] F6 |] %21
V:2
 z4 z2 [F,A,][F,B,F] | [F,CF][F,CF] [F,CF]2 [F,CF]2 [F,B,C][F,A,C] | %2
[M:3/4] [F,A,F][F,A,F] [F,A,F]>[F,B,F] [F,A,F]2 |[M:1/4] [F,A,][F,B,F] | %4
[M:4/4] [F,CF][F,CF][F,CF][F,CF] [F,CF][F,CF][E,CE][D,=B,] | [C,C]6 [F,A,][K:treble][F,B,F] | %6
 [F,CF][F,CF][F,CF][F,CF] FF[K:bass][E,C][D,G,D] | %7
 [C,G,][C,A,] [C,B,]>[C,B,] [F,A,E]2 [F,A,][F,B,F] | %8
 [F,CF][F,CF] [F,CF]2 [F,CF][F,A,] [C,B,]>[C,B,] |[M:3/4] [F,A,]6 |[M:1/4][K:treble] F>G | %11
[M:4/4] z A3- A z z2 |[M:3/4] A6[K:bass] |[M:1/4] [F,A,][F,B,F] | %14
[M:4/4] [F,CF][F,CF] [F,CF]2 [F,CF][F,CF][E,CE][D,=B,] | [C,C]2 C,2 C,C,[K:treble] F>G | %16
[M:3/4] z A- A3[K:bass] z |[M:1/4][K:treble] B>B |[M:4/4] A6[K:bass] z2 | %19
 [F,CF][F,CF] [F,CF]2 [F,CF][F,A,] [C,B,]>[C,B,] |[M:3/4] [F,A,]6 |] %21
V:3
 x8 | x8 |[M:3/4] x6 |[M:1/4] x2 |[M:4/4] x8 | x7[K:treble] x | z4 [F,C]2[K:bass] z2 | x8 | x8 | %9
[M:3/4] x6 |[M:1/4][K:treble] x2 |[M:4/4] .A2 F,2 F,F, B>B |[M:3/4] z[K:bass] F,2 F, .F,2 | %13
[M:1/4] x2 |[M:4/4] x8 | x6[K:treble] x2 |[M:3/4] .A2 F,2[K:bass] F,F, |[M:1/4][K:treble] x2 | %18
[M:4/4] z[K:bass] F,2 F, F,2 [F,A,][F,B,F] | x8 |[M:3/4] x6 |] %21
V:4
 x8 | x8 |[M:3/4] x6 |[M:1/4] x2 |[M:4/4] x8 | x8 | x8 | x8 | x8 |[M:3/4] x6 |[M:1/4] x2 | %11
[M:4/4] .c2 A,2 A,A, d>d |[M:3/4] z A,2 A, .A,2 |[M:1/4] x2 |[M:4/4] x8 | z2 C2 CC A>B | %16
[M:3/4] .c2 A,2 A,A, |[M:1/4] x2 |[M:4/4] z A,2 A, A,2 FG | x8 |[M:3/4] x6 |] %21

